X: 1
T: Engelsk fr. Mallebro
R: ganglat, march
M: 2/4
L: 1/16
K: A
V: 1
"A"|: AB \
| c2cc cBcd | e4 c2dc | B2B2 B2AB | c3B A2AB \
| c2cc cBcd | e2a2 e3d | cABc B3A | A6 :|
"B"|: Ac \
| e2e2 f2f2 | e6 ed | c2c2 d2e2 | c6 AB \
| c2cc cBcd | e2a2 e3d | cABc B3A | A6 :|
V:2
|: cB \
| "A"A2AA AGAB | "A"c4 A2BA | "E"G2B2 e2B2 | "A"e3e c2EG \
| "A"A2c2 egab | "A"a2e2 c2de | "A"caga "E"B2g2 | "A"a6 :|
|: ce \
| "A"a2e2 "D"a2f2 | "A"e2c2 A2EA | "A"c2e2 "E"d2B2 | "A"c2A2 E2EG \
| "A"A2E2 ceag | a2e2 c2de | "A"caga "E"B2g2 | "A"a6 :|
